X: 35402
T: Rothiemurchus Rant
R: strathspey
M: 4/4
K: Cmajor
|:F|"C"E>DE>C E<G GA/B/|"C"c>GA>G "F"c>GA<c|"C"E>DE>C E<GG>c|"F"A<c"C"G>c "G"E<D D:|
|:f|"Am"e2 d>c d>e "G"d>B|"C"c>d e>d "G"e/d/c/B/ "C"c>G|"F"A/A/A a>g "Am"e2 d>c|"F"A<c "C"G<c "G"E<D D:|
|:f|"C"e<gg>e g>ag>d|"Am"e<aa>b "F"a>b"G"a>g|"C"e<g"G"d>e "Am"c>de>c|"F"A<ag>e "G"d2 d:|
g|"Am"e2 d>c d<e "F"a2|"C"g<ee>d "F"c<AA>c|"C"G>Ac>d e2 d>c|"F"A<c"C"G>c "G"E<DDg|
"Am"e2 d>c d<e a2|"Em"g<ee>d "F"c<A Af/g/|"F"a>f"G"g>d "Am"e2 d>c|"F"A<c"C"G>c "G"E<D D||

